src/lib/packages/icons/src/assets/line/send.svg

<svg width="24" height="24" viewBox="0 0 24 24" fill="none" xmlns="http://www.w3.org/2000/svg">
<path d="M20.9271 3.07299C20.2251 2.37099 19.231 2.095 18.265 2.336L5.15221 5.61401C3.40421 6.05101 2.23808 7.55499 2.25108 9.35699C2.26408 11.159 3.45021 12.646 5.20421 13.059L9.85021 14.152L10.9432 18.797C11.3562 20.551 12.8431 21.737 14.6451 21.75C14.6541 21.75 14.6642 21.75 14.6732 21.75C16.4622 21.75 17.9521 20.587 18.3871 18.849L21.6651 5.73599C21.9051 4.77099 21.6301 3.77599 20.9271 3.07299ZM20.2091 5.37201L16.931 18.485C16.602 19.798 15.5412 20.258 14.6542 20.25C13.8092 20.244 12.7132 19.77 12.4032 18.454L11.2992 13.763L15.5301 9.531C15.8231 9.238 15.8231 8.763 15.5301 8.47C15.2371 8.177 14.7621 8.177 14.4691 8.47L10.2372 12.702L5.54601 11.598C4.22901 11.288 3.75513 10.191 3.74913 9.346C3.74313 8.50101 4.20202 7.397 5.51402 7.069L18.6271 3.79098C18.7341 3.76398 18.8421 3.751 18.9481 3.751C19.2881 3.751 19.6161 3.885 19.8651 4.134C20.1921 4.46 20.3211 4.92301 20.2091 5.37201Z" fill="currentColor"/>
</svg>

<svg xmlns="http://www.w3.org/2000/svg" width="24" height="24" fill="none"><path fill="currentColor" d="M20.927 3.073a2.78 2.78 0 0 0-2.662-.737L5.152 5.614c-1.748.437-2.914 1.941-2.9 3.743.012 1.802 1.198 3.289 2.952 3.702l4.646 1.093 1.093 4.645c.413 1.754 1.9 2.94 3.702 2.953h.028c1.79 0 3.28-1.163 3.714-2.901l3.278-13.113a2.784 2.784 0 0 0-.738-2.663Zm-.718 2.299-3.278 13.113c-.329 1.313-1.39 1.773-2.277 1.765-.845-.006-1.94-.48-2.25-1.796l-1.105-4.691 4.231-4.232a.75.75 0 1 0-1.06-1.061l-4.233 4.232-4.691-1.104c-1.317-.31-1.79-1.407-1.797-2.252-.006-.845.453-1.949 1.765-2.277l13.113-3.278a1.293 1.293 0 0 1 1.238.343c.327.326.456.789.344 1.238Z"/></svg>
